src/svg/uf290-shopping-bag.svg

<!-- Generated by IcoMoon.io -->
<svg version="1.1" xmlns="http://www.w3.org/2000/svg" width="32" height="32" viewBox="0 0 32 32">
<path d="M31.375 25.143l0.625 5.589c0.036 0.321-0.071 0.643-0.286 0.893-0.214 0.232-0.536 0.375-0.857 0.375h-29.714c-0.321 0-0.643-0.143-0.857-0.375-0.214-0.25-0.321-0.571-0.286-0.893l0.625-5.589h30.75zM29.714 10.161l1.536 13.839h-30.5l1.536-13.839c0.071-0.571 0.554-1.018 1.143-1.018h4.571v2.286c0 1.268 1.018 2.286 2.286 2.286s2.286-1.018 2.286-2.286v-2.286h6.857v2.286c0 1.268 1.018 2.286 2.286 2.286s2.286-1.018 2.286-2.286v-2.286h4.571c0.589 0 1.071 0.446 1.143 1.018zM22.857 6.857v4.571c0 0.625-0.518 1.143-1.143 1.143s-1.143-0.518-1.143-1.143v-4.571c0-2.518-2.054-4.571-4.571-4.571s-4.571 2.054-4.571 4.571v4.571c0 0.625-0.518 1.143-1.143 1.143s-1.143-0.518-1.143-1.143v-4.571c0-3.786 3.071-6.857 6.857-6.857s6.857 3.071 6.857 6.857z"></path>
</svg>

<svg xmlns="http://www.w3.org/2000/svg" width="32" height="32"><path d="M31.375 25.143L32 30.732c.036.321-.071.643-.286.893a1.19 1.19 0 0 1-.857.375H1.143a1.19 1.19 0 0 1-.857-.375A1.18 1.18 0 0 1 0 30.732l.625-5.589h30.75zm-1.661-14.982L31.25 24H.75l1.536-13.839a1.158 1.158 0 0 1 1.143-1.018H8v2.286c0 1.268 1.018 2.286 2.286 2.286s2.286-1.018 2.286-2.286V9.143h6.857v2.286c0 1.268 1.018 2.286 2.286 2.286s2.286-1.018 2.286-2.286V9.143h4.571c.589 0 1.071.446 1.143 1.018zm-6.857-3.304v4.571c0 .625-.518 1.143-1.143 1.143s-1.143-.518-1.143-1.143V6.857c0-2.518-2.054-4.571-4.571-4.571s-4.571 2.054-4.571 4.571v4.571c0 .625-.518 1.143-1.143 1.143s-1.143-.518-1.143-1.143V6.857C9.143 3.071 12.214 0 16 0s6.857 3.071 6.857 6.857z"/></svg>
